!!!Genre:	Doyne
!!!Mode:	Altered Dorian
!!!Edition:	2015
!!!Listening/dance:	listening
!!!Free rhythm?:	yes
!!!Secondary Modes:	no
!!!One_Mode:	All altered Dorian
!!!Orig_tonic: unknown
**kern
*I"P1
*clefG2
*k[b-]
*g:dor
*M2/4
*>A
=1
8gL
16dL
16dJJ
8GL
8dJ
=2
8D
8d
8GL
8dJ
=3
16cc#XLL
(8qee/
16dd)
16dd
16ddJJ
16.cc#LL
32b-k
16a
16b-JJ
=4
16cc#XLL
(8qee/
16dd)
16dd
16ddJJ
16.cc#LL
32b-k
16a
16gJJ
=5
16aLL
16b-
16cc#XJJ
(8qee/
16ddJJ)
16.cc#LL
32b-k
16a
16gJJ
=6
4dd
4r
=7
16ggLL
16aa
16bb-
16aaJJ
16ggLL
16ff
16ee
16ddJJ
=8
16.ggLL
32ffk
(16qqee/LL
16qqff/JJ
16ee)
16ddJJ
(16qqcc#X/LL
16qqdd/JJ
16cc#XLL)
16b-
16a
16gJJ
=9
16aLL
(8qccX/
16b-)
16b-
16b-JJ
(16qqa/LL
16qqb-/JJ
16aLL)
16g
16f#
16gJJ
=10
4g
8r
16cc#XLL
16cc#JJ
=11
(8qee/
4.dd)
(16.cc#XLL
32eeJJk
=12
4.dd)
(16.cc#XLL
32eeJJk
=13
8ddL)
(16.cc#XL
32eeJJk
8ddL)
(16.cc#L
32eeJJk
=14
4dd)
8r
8b-
=15
16b-LL
(8qee/
16dd)
16cc#X
16b-JJ
4dd
=16
16b-LL
16dd
(16qqcc#X\LL
16qqdd\JJ
16cc#X)
16b-JJ
4dd
=17
16cc#XLL
(8qee/
16dd)
16cc#
16b-JJ
16aLL
16g
16a
16b-JJ
=18
8gL
8ggJ
8r
8gg
=19
16cc#LL
(8qee/
16dd)
16cc#X
16b-JJ
4dd
=20
16cc#XLL
(8qee/
16dd)
16cc#
16b-JJ
8ddL
(56gLL
56a
56b-
56ccn
56dd
56ee
56ff#XJJJ
=21
4gg)
(8dL
16eL
16f#XJJ
=22
4g)
4r
==
*-
